!!!!SEGMENT: pl-wn--sd-xvi-qu-273--093_gomolka-mikolaj--pan-chce-krolowac-odzial-sie-zacnoscia.krn
!!!cenid: 15xx:298
!!!COM: Gomółka, Mikołaj
!!!COM-rismid: pe30013343
!!!CDT: ~1535->1591/04/30
!!!CNT: Polish
!!!GTL: Melodiae na psalterz polski
!!!OTL: XCIII. Pan chce królować: odział się zacnością,
!!!PDT: 1580
!!!AGN: Sacred
!!!SMS-siglum: PL-Wn
!!!SMS-shelfmark: SD XVI.Qu.273
!!!SMS-shelfwork: 093 G
!!!NIFC-rismid:
!!!ONB-nifc: Melodiae na psalterz polski
**kern	**text	**kern	**text	**kern	**text	**kern	**text
*part4	*part4	*part3	*part3	*part2	*part2	*part1	*part1
*staff4	*staff4	*staff3	*staff3	*staff2	*staff2	*staff1	*staff1
*clefF3	*	*clefC2	*	*clefC2	*	*clefG2	*
*k[b-]	*	*k[b-]	*	*k[b-]	*	*k[b-]	*
*F:	*	*F:	*	*F:	*	*F:	*
*M4/2	*	*M4/2	*	*M4/2	*	*M4/2	*
*met(C|)	*	*met(C|)	*	*met(C|)	*	*met(C|)	*
=1-	=1	=1	=1	=1	=1	=1	=1
1F	Pan	1cc	Pan	1cc	Pan	1ff	Pan
2c	chce	2b-	chce	2cc	chce	2ee	chce
1d	ťró	1a	ťró	1a	ťró	1dd	ťró
=2-	=2	=2	=2	=2	=2	=2	=2
.	.	.	.	.	.	.	.
4c	lo	4g	lo	2b-	lo-	2dd	lo-
4B-	.	4f	.	.	.	.	.
2c	wáć:	2g	wáć:	2g	-wáć:	2cc	-wáć:
1.F	o-	2a	o-	2a	o-	2cc	o-
=3-	=3	=3	=3	=3	=3	=3	=3
!	!'ź'	!	!'ź'	!	!'ź'	!	!'ź'
.	-dӡiał_ʃye	2.a	-dӡiał	2.b-	-dӡiał	2.dd	-dӡiał
.	.	4g	.	4a	.	4cc	.
2B-	.	2f	ʃye	2g	ʃye	2b-/	ʃye
2A	ӡac	1e	ӡac	1f	ӡac	2cc	ӡac-
=4-	=4	=4	=4	=4	=4	=4	=4
2G	.	.	.	.	.	1b-	-noś-
2G	noś-	2d	noś-	2e/	noś-	.	.
2F/	-ćią/	2e/	-ćią/	2f	-ćią/	2a	-ćią/
2F/	O	2.a	O	2a	O-	2cc	O-
=5-	=5	=5	=5	=5	=5	=5	=5
2D	.	.	.	2.b-	-ťrył	2.dd	-ťrył
.	.	4g	.	.	.	.	.
2.G	ťrył	2f	ťrył	.	.	.	.
.	.	.	.	4a	.	4cc	.
.	.	2.g	ʃye	2g	ʃye	2b-X	ʃye
4F/	ʃye	.	.	.	.	.	.
2E	mę-	.	.	2g	mę	2.cc	mę
.	.	4f	mę-	.	.	.	.
=6-	=6	=6	=6	=6	=6	=6	=6
2.F/	-ʃtwem	2e/	-ʃtwem	2.a	ʃtwem	.	.
.	.	.	.	.	.	4b-	.
.	.	2e/	.	.	.	2a	ʃtwem
4E	.	.	.	4g	.	.	.
!!LO:PB:g=original
2D	wʃᴣy	2.f	wʃᴣy	2f	wʃᴣy	1dd	wʃᴣy-
2G	.	.	.	2b-	.	.	.
.	.	4g	.	.	.	.	.
=7-	=7	=7	=7	=7	=7	=7	=7
2A	teť/	2.a	teť/	2a	teť/	2cc	-teť/
2F/	y	.	.	2a	y	2a	y
.	.	4g	y	.	.	.	.
!	!'ź'	!	!'ź'	!	!'ź'	!	!'ź'
1G	dӡielno-	4f	dӡiel	2.g	dӡiel-	2b-X	dӡiel-
.	.	4e	.	.	.	.	.
.	.	2f	no-	.	.	2b-	-no-
.	.	.	.	4f	-no-	.	.
=8-	=8	=8	=8	=8	=8	=8	=8
2C	-śćią:	2e/	-śćią:	2e/	-śćią:	2cc	-śćią:
2F/	Pan	2e/	Pan	2f	Pan	2cc	Pan
1.F	prӡeӡ	1.c	prӡeӡ	1.f	prӡeӡ	1.cc	prӡeӡ
=9-	=9	=9	=9	=9	=9	=9	=9
.	.	.	.	.	.	.	.
2F/	ťtó-	2c	ťtó-	2c	ťtó-	2cc	ťtó-
*clefF4	*	*	*	*	*	*	*
1BB-X	-re-	2d	-re	1d	-re-	1b-	-re-
.	.	2A	.	.	.	.	.
=10-	=10	=10	=10	=10	=10	=10	=10
2FF	-go	4a	go	4c	-go	2a	-go
.	.	4g	.	4B-	.	.	.
4F	ťrąg	4f	ťrąg	4A	ťrąg	2f	ťrąg
4E	.	4e/	.	4G	.	.	.
2.D/	nie	4d	nie	2F	nie	2.ff	nie
.	.	4c	.	.	.	.	.
.	.	4d	.	2f	.	.	.
4C	.	4e/	.	.	.	4ee	.
=11-	=11	=11	=11	=11	=11	=11	=11
2BB-	po-	2f	po-	2.f	po-	2dd	po-
2FF	-ru-	2c	-ru-	.	.	2cc	-ru-
.	.	.	.	4e/	-ru-	.	.
!!LO:PB:g=original
4BB-	-ʃᴣo	2.d	-ʃᴣo	4d	-ʃᴣo	1b-	-ʃᴣo-
4C	.	.	.	4e/	.	.	.
4D/	.	.	.	4f	.	.	.
4E	.	8cL	.	4g	.	.	.
.	.	8B-J	.	.	.	.	.
=12-	=12	=12	=12	=12	=12	=12	=12
4F	ny	2c	ny	2.f	ny	2a	-ny
4E	.	.	.	.	.	.	.
4D	Ӡiem	2c	Ӡiem-	.	.	2f	Ӡiem-
4C	.	.	.	4e/	Ӡiem-	.	.
2BB-	ʃťi	2.d	-ʃťi	4d	-ʃťi	2g	-ʃťi
.	.	.	.	4c	.	.	.
2BB-	ʃtwo-	.	.	2d	ʃtwo	1f	ʃtwo
.	.	4c	ʃtwo	.	.	.	.
=13-	=13	=13	=13	=13	=13	=13	=13
1C	-rӡo-	4B-	.	2.c	.	.	.
.	.	4A	.	.	.	.	.
.	.	2B-	rӡo-	.	.	2e	rӡo-
.	.	.	.	4B-	rӡo-	.	.
!	!	!'ogonek po lewej stronie'	!	!'ogonek po lewej stronie'	!	!	!
!!LO:N:vis=00
1FF/	-ny.	1A/	-ny.	1A/	-ny.	1f/	-ny.
=	=	=	=	=	=	=	=
*-	*-	*-	*-	*-	*-	*-	*-
!!!RDF**kern: l = terminal long
!!!system-decoration: s1,s2,s3,s4
!!!ENC:Anna Matuszewska
!!!END:2020-02-16
!!!URL-scan: https://polona.pl/item/melodiae-na-psalterz-polski,Nzk3MTM4ODQ/216 Scan on Polona
!!!IIIF: https://polona.pl/iiif/item/Nzk3MTM4ODQ/manifest.json
